build/img/header/telegram.svg

<svg width="29" height="29" viewBox="0 0 29 29" fill="none" xmlns="http://www.w3.org/2000/svg">
<g filter="url(#filter0_i_556_988)">
<circle cx="14.5" cy="14.5" r="14.5" fill="url(#paint0_linear_556_988)"/>
</g>
<g clip-path="url(#clip0_556_988)">
<path d="M20.3702 9.9599C20.2837 10.6139 20.199 11.4103 20.0711 12.2C19.7184 14.3718 19.3552 16.5423 18.9814 18.7116C18.9385 18.9719 18.8683 19.2269 18.7717 19.4724C18.5514 20.0197 18.1763 20.1976 17.6175 20.0052C17.3546 19.9091 17.1051 19.7798 16.875 19.6205C15.7362 18.8632 14.6025 18.0966 13.4739 17.3208C13.2876 17.197 13.1157 17.0528 12.9613 16.8908C12.7497 16.661 12.7391 16.4253 12.9199 16.1685C13.0411 15.9992 13.1786 15.8423 13.3306 15.7001C14.3203 14.7537 15.3168 13.8139 16.3123 12.8685C16.5268 12.6636 16.7297 12.4472 16.9336 12.2317C17.0366 12.1221 17.1779 11.9951 17.0462 11.8403C16.9144 11.6854 16.7519 11.7864 16.6162 11.873C16.1844 12.149 15.7506 12.4241 15.3255 12.7078C14.0751 13.5437 12.8324 14.3959 11.5686 15.2086C11.2326 15.4242 10.862 15.5804 10.473 15.6703C10.1999 15.7328 9.87959 15.676 9.5997 15.602C8.91872 15.424 8.25314 15.2067 7.57986 15.0008C7.47953 14.9699 7.3828 14.9283 7.29131 14.8768C6.93062 14.6767 6.90081 14.3959 7.22302 14.14C7.3555 14.0367 7.50062 13.9507 7.65488 13.8842C11.1816 12.3882 14.7099 10.8967 18.2398 9.40973C18.6316 9.24892 19.0368 9.12308 19.4507 9.03366C20.0557 8.89612 20.3818 9.19044 20.3702 9.9599Z" fill="white"/>
</g>
<defs>
<filter id="filter0_i_556_988" x="0" y="0" width="29" height="29" filterUnits="userSpaceOnUse" color-interpolation-filters="sRGB">
<feFlood flood-opacity="0" result="BackgroundImageFix"/>
<feBlend mode="normal" in="SourceGraphic" in2="BackgroundImageFix" result="shape"/>
<feColorMatrix in="SourceAlpha" type="matrix" values="0 0 0 0 0 0 0 0 0 0 0 0 0 0 0 0 0 0 127 0" result="hardAlpha"/>
<feOffset/>
<feGaussianBlur stdDeviation="2.5"/>
<feComposite in2="hardAlpha" operator="arithmetic" k2="-1" k3="1"/>
<feColorMatrix type="matrix" values="0 0 0 0 1 0 0 0 0 1 0 0 0 0 1 0 0 0 1 0"/>
<feBlend mode="normal" in2="shape" result="effect1_innerShadow_556_988"/>
</filter>
<linearGradient id="paint0_linear_556_988" x1="22.3714" y1="-2.17301e-07" x2="10.7714" y2="29" gradientUnits="userSpaceOnUse">
<stop stop-color="#77BBEF"/>
<stop offset="1" stop-color="#4898D5"/>
</linearGradient>
<clipPath id="clip0_556_988">
<rect width="13.3713" height="11.0803" fill="white" transform="translate(7 9)"/>
</clipPath>
</defs>
</svg>

<svg width="29" height="29" fill="none" xmlns="http://www.w3.org/2000/svg"><g filter="url(#filter0_i_556_988)"><circle cx="14.5" cy="14.5" r="14.5" fill="url(#paint0_linear_556_988)"/></g><g clip-path="url(#clip0_556_988)"><path d="M20.37 9.96c-.086.654-.171 1.45-.299 2.24a684.605 684.605 0 01-1.09 6.512c-.043.26-.113.515-.21.76-.22.548-.595.726-1.154.533a3.287 3.287 0 01-.742-.384 267.068 267.068 0 01-3.401-2.3 3.008 3.008 0 01-.513-.43c-.211-.23-.222-.466-.041-.722a3.16 3.16 0 01.41-.469c.99-.946 1.987-1.886 2.982-2.832.215-.204.418-.42.622-.636.103-.11.244-.237.112-.392-.132-.155-.294-.054-.43.033-.432.276-.865.551-1.29.835-1.25.836-2.494 1.688-3.757 2.5a3.48 3.48 0 01-1.096.462c-.273.063-.593.006-.873-.068-.681-.178-1.347-.395-2.02-.601a1.47 1.47 0 01-.289-.124c-.36-.2-.39-.481-.068-.737.133-.103.278-.19.432-.256A4606.79 4606.79 0 0118.24 9.41a7.15 7.15 0 011.21-.376c.606-.138.932.156.92.926z" fill="#fff"/></g><defs><linearGradient id="paint0_linear_556_988" x1="22.371" y1="0" x2="10.771" y2="29" gradientUnits="userSpaceOnUse"><stop stop-color="#77BBEF"/><stop offset="1" stop-color="#4898D5"/></linearGradient><clipPath id="clip0_556_988"><path fill="#fff" transform="translate(7 9)" d="M0 0h13.371v11.08H0z"/></clipPath><filter id="filter0_i_556_988" x="0" y="0" width="29" height="29" filterUnits="userSpaceOnUse" color-interpolation-filters="sRGB"><feFlood flood-opacity="0" result="BackgroundImageFix"/><feBlend in="SourceGraphic" in2="BackgroundImageFix" result="shape"/><feColorMatrix in="SourceAlpha" values="0 0 0 0 0 0 0 0 0 0 0 0 0 0 0 0 0 0 127 0" result="hardAlpha"/><feOffset/><feGaussianBlur stdDeviation="2.5"/><feComposite in2="hardAlpha" operator="arithmetic" k2="-1" k3="1"/><feColorMatrix values="0 0 0 0 1 0 0 0 0 1 0 0 0 0 1 0 0 0 1 0"/><feBlend in2="shape" result="effect1_innerShadow_556_988"/></filter></defs></svg>
